!!!OTL: Schusters Abendlied.
!!!OTL-incipit: ICH GUNG EMAL SPAZIERE - AHM
!!!ARE: Europa, Mitteleuropa, Deutschland
!!!SCT: Z0186
!!!YEM: Copyright 1995, estate of Helmut Schaffrath.
**kern	**text
*ICvox	*
*M2/4	*
*k[b-]	*
*F:	*
{8c	Jch
=1	=1
8f	gung
8e	e-
8f	-mal
8g	ſpa-
=2	=2
4a	-ʒie-
8f	-re
(8c	A_hm!
=3	=3
4g)	.
8r}	.
{8c	Jch
=4	=4
8f	gung
8e	e-
8f	-mal
8g	ſpa-
=5	=5
4a	-ʒie-
4f	-re,
=6	=6
8g	val-
16g	-tal-
16g	-te-
8g	-ri,
16cc	val-
16cc	-te-
=7	=7
4a	-ra,
8r}	.
{8a	und
=8	=8
8a	thät
8g	ä
8f	Mädel
8e	.
=9	=9
8e	füh-
8d	.
8d}	-re,
{8A	a-
=10	=10
4d	-ha,
8r	.
8c	a-
=11	=11
4f	-ha,
4c	a-
=12	=12
4a	-ha!
8r}	.
==	==
!!!AGN: Schuster -, Handwerker - Lied, Liebeslied
!!!ONB: ESAC (Essen Associative Code) Database: ZUCCAL
!!!AMT: simple duple
!!!AIN: vox
!!!EED: Helmut Schaffrath
!!!EEV: 1.0
!!!GTL: III. Soldaten-, Jaeger-, Schiffer-, Fuhrmanns- und Handwerks-Lieder.
!!!URL-scan: https://www.digitale-sammlungen.de/de/view/bsb11160571?page=346
!!!ENC: Anna Maria Matuszewska
!!!EEV: 2025/01/28
*-	*-
